icons/svgs/plus-circle-outline.svg

<svg width="24" height="24" viewBox="0 0 24 24" fill="none" xmlns="http://www.w3.org/2000/svg">
<path d="M12 3.875C9.07031 3.875 6.41406 5.4375 4.92969 7.9375C3.48438 10.4766 3.48438 13.5625 4.92969 16.0625C6.41406 18.6016 9.07031 20.125 12 20.125C14.8906 20.125 17.5469 18.6016 19.0312 16.0625C20.4766 13.5625 20.4766 10.4766 19.0312 7.9375C17.5469 5.4375 14.8906 3.875 12 3.875ZM12 22C8.40625 22 5.125 20.125 3.32812 17C1.53125 13.9141 1.53125 10.125 3.32812 7C5.125 3.91406 8.40625 2 12 2C15.5547 2 18.8359 3.91406 20.6328 7C22.4297 10.125 22.4297 13.9141 20.6328 17C18.8359 20.125 15.5547 22 12 22ZM11.0625 15.4375V12.9375H8.5625C8.01562 12.9375 7.625 12.5469 7.625 12C7.625 11.4922 8.01562 11.0625 8.5625 11.0625H11.0625V8.5625C11.0625 8.05469 11.4531 7.625 12 7.625C12.5078 7.625 12.9375 8.05469 12.9375 8.5625V11.0625H15.4375C15.9453 11.0625 16.375 11.4922 16.375 12C16.375 12.5469 15.9453 12.9375 15.4375 12.9375H12.9375V15.4375C12.9375 15.9844 12.5078 16.375 12 16.375C11.4531 16.375 11.0625 15.9844 11.0625 15.4375Z" fill="black"/>
</svg>

<svg xmlns="http://www.w3.org/2000/svg" width="24" height="24" fill="currentColor" class="icon-plus-circle-outline" viewBox="0 0 24 24">
  <mask id="a" width="21" height="20" x="1" y="2" maskUnits="userSpaceOnUse" style="mask-type:alpha">
    <path d="M12 3.875c-2.93 0-5.586 1.563-7.07 4.063-1.446 2.539-1.446 5.625 0 8.125A8.13 8.13 0 0 0 12 20.125c2.89 0 5.547-1.523 7.031-4.062 1.446-2.5 1.446-5.586 0-8.125-1.484-2.5-4.14-4.063-7.031-4.063M12 22c-3.594 0-6.875-1.875-8.672-5-1.797-3.086-1.797-6.875 0-10C5.125 3.914 8.406 2 12 2c3.555 0 6.836 1.914 8.633 5 1.797 3.125 1.797 6.914 0 10A9.93 9.93 0 0 1 12 22m-.937-6.562v-2.5h-2.5c-.547 0-.938-.391-.938-.938 0-.508.39-.937.938-.937h2.5v-2.5c0-.508.39-.938.937-.938a.95.95 0 0 1 .938.938v2.5h2.5a.95.95 0 0 1 .937.937c0 .547-.43.938-.937.938h-2.5v2.5c0 .546-.43.937-.938.937-.547 0-.937-.39-.937-.937"/>
  </mask>
  <g mask="url(#a)">
    <path d="M0 0h24v24H0z"/>
  </g>
</svg>
